openmetadata-ui/src/main/resources/ui/src/assets/svg/icon-copy.svg

<svg width="448" height="512" viewBox="0 0 448 512" fill="none" xmlns="http://www.w3.org/2000/svg">
<path d="M336 0C334.016 0 144 0 144 0C110.144 0 80.0003 31.0562 80.0003 64.0004L61.5042 64.4323C27.664 64.4323 0 95.0559 0 128V448C0 480.945 30.1441 512 64.0004 512H304C337.856 512 368 480.945 368 448H384C417.856 448 448 416.945 448 384.001V128.384L336 0ZM304 480.001H64.0004C47.2004 480.001 32.0005 464.306 32.0005 448V128C32.0005 111.696 45.6807 96.528 62.4807 96.528L80.0003 96.0002V384.001C80.0003 416.945 110.144 448 144 448H336C336 464.305 320.8 480.001 304 480.001ZM416.001 384.001C416.001 400.304 400.8 416 384 416H144C127.2 416 112 400.304 112 384.001V64.0004C112 47.6967 127.2 32.0005 144 32.0005H304C303.744 68.8486 304 96.4006 304 96.4006C304 129.649 333.92 160.001 368 160.001C368 160.001 384.993 160.001 416.001 160.001V384.001ZM368 128C350.961 128 336 97.0404 336 80.4322C336 80.4322 336 63.5999 336 32.4961V32.4639L416.001 128H368ZM336 224.289H192C183.168 224.289 176 231.441 176 240.272C176 249.104 183.168 256.256 192 256.256H336C344.832 256.256 352 249.104 352 240.272C352 231.441 344.832 224.289 336 224.289ZM336 304.208H192C183.168 304.208 176 311.36 176 320.191C176 329.024 183.168 336.176 192 336.176H336C344.832 336.176 352 329.024 352 320.191C352 311.36 344.832 304.208 336 304.208Z" fill="#37352F"/>
</svg>

<svg xmlns="http://www.w3.org/2000/svg" viewBox="0 0 448 512" fill="none"><path fill="#37352F" d="M336 0H144c-33.856 0-64 31.056-64 64l-18.496.432C27.664 64.432 0 95.056 0 128v320c0 32.945 30.144 64 64 64h240c33.856 0 64-31.055 64-64h16c33.856 0 64-31.055 64-63.999V128.384L336 0Zm-32 480.001H64c-16.8 0-32-15.695-32-32.001V128c0-16.304 13.68-31.472 30.48-31.472L80 96v288.001C80 416.945 110.144 448 144 448h192c0 16.305-15.2 32.001-32 32.001Zm112.001-96C416.001 400.304 400.8 416 384 416H144c-16.8 0-32-15.696-32-31.999v-320c0-16.304 15.2-32 32-32h160c-.256 36.848 0 64.4 0 64.4 0 33.248 29.92 63.6 64 63.6h48.001v224ZM368 128c-17.039 0-32-30.96-32-47.568V32.464L416.001 128H368Zm-32 96.289H192c-8.832 0-16 7.152-16 15.983 0 8.832 7.168 15.984 16 15.984h144c8.832 0 16-7.152 16-15.984 0-8.831-7.168-15.983-16-15.983Zm0 79.919H192c-8.832 0-16 7.152-16 15.983 0 8.833 7.168 15.985 16 15.985h144c8.832 0 16-7.152 16-15.985 0-8.831-7.168-15.983-16-15.983Z"/></svg>
